icon/lg/aws-cloudsearch.svg

<?xml version="1.0" encoding="UTF-8"?>
<svg viewBox="0 0 256 256" version="1.1" xmlns="http://www.w3.org/2000/svg" xmlns:xlink="http://www.w3.org/1999/xlink" preserveAspectRatio="xMidYMid" height="1em" width="1em">
  <defs>
    <linearGradient x1="0%" y1="100%" x2="100%" y2="0%" id="linearGradient-1">
      <stop stop-color="#4D27A8" offset="0%"/>
      <stop stop-color="#A166FF" offset="100%"/>
    </linearGradient>
  </defs>
  <g>
    <rect fill="url(#linearGradient-1)" x="0" y="0" width="256" height="256"/>
    <path d="M149.469682,85.9056483 L149.469682,92.331761 C146.673454,92.331761 144.018644,93.3502995 141.993789,95.2010202 C141.20956,95.9143184 140.119996,96.1938544 139.091498,95.9560883 C138.059786,95.7183219 137.21449,94.9825322 136.828803,93.9929107 C132.907656,83.9135536 122.7416,77.140431 111.530976,77.140431 C103.797959,77.140431 96.4281312,80.3309958 91.3113555,85.8960093 C86.9177424,90.6609715 84.5007728,96.7593523 84.5007728,103.069795 C84.5007728,104.4739 83.5911952,105.749484 82.2509344,106.170394 C75.5656998,108.26852 70.5871286,113.656815 69.2211552,120.246793 C69.214727,120.298202 69.2082989,120.346398 69.1986566,120.391381 C68.973673,121.612342 68.8643949,122.759403 68.8643949,123.896825 C68.8643949,134.19467 77.6034106,142.574321 88.3415686,142.574321 L139.223274,142.574321 L139.223274,149.000434 L88.3415686,149.000434 C74.0583078,149.000434 62.4362848,137.738671 62.4362848,123.896825 C62.4362848,122.40918 62.5712752,120.927961 62.8508979,119.376055 C62.8605402,119.295729 62.8733965,119.221828 62.8894666,119.147928 C64.5157786,110.919291 70.2785792,104.075481 78.1562282,100.827082 C78.676905,93.6908835 81.6209795,86.9274003 86.5834806,81.5455312 C92.9087408,74.6631645 102.004517,70.7143184 111.530976,70.7143184 C123.972583,70.7143184 135.395335,77.5195715 141.113139,88.000561 C143.645814,86.6350122 146.509537,85.9056483 149.469682,85.9056483 M219.969979,219.967206 C214.621792,225.313732 205.914916,225.310519 200.566729,219.97042 L156.768801,176.20538 C164.157913,170.640367 170.576381,163.854392 175.728511,156.152697 L219.986049,200.592477 C225.314953,205.939003 225.30531,214.63032 219.969979,219.967206 M32.0281101,110.732934 C32.0281101,69.0981514 65.9106784,35.2261123 107.558404,35.2261123 C149.206129,35.2261123 183.088698,69.0981514 183.088698,110.732934 C183.088698,152.367716 149.206129,186.239755 107.558404,186.239755 C65.9106784,186.239755 32.0281101,152.367716 32.0281101,110.732934 M224.54358,196.058855 L179.177192,150.507357 C185.753149,138.718653 189.516808,125.159556 189.516808,110.732934 C189.516808,65.5573632 152.751232,28.8 107.558404,28.8 C62.3655757,28.8 25.6,65.5573632 25.6,110.732934 C25.6,155.911717 62.3655757,192.665868 107.558404,192.665868 C123.673676,192.665868 138.699383,187.974805 151.388473,179.910035 L196.022055,224.516894 C199.94963,228.440036 205.108188,230.4 210.266747,230.4 C215.425305,230.4 220.587078,228.436823 224.514653,224.510468 C232.350519,216.673824 232.363375,203.911564 224.54358,196.058855 M107.558404,166.961418 C76.5459866,166.961418 51.3124403,141.735713 51.3124403,110.732934 C51.3124403,79.7301542 76.5459866,54.5044499 107.558404,54.5044499 C138.570821,54.5044499 163.804367,79.7301542 163.804367,110.732934 C163.804367,141.735713 138.570821,166.961418 107.558404,166.961418 M107.558404,48.0783373 C73.0008838,48.0783373 44.8843302,76.1861533 44.8843302,110.732934 C44.8843302,145.279714 73.0008838,173.38753 107.558404,173.38753 C142.115924,173.38753 170.232477,145.279714 170.232477,110.732934 C170.232477,76.1861533 142.115924,48.0783373 107.558404,48.0783373" fill="#FFFFFF"/>
  </g>
</svg>

<svg width="256" height="256" xmlns="http://www.w3.org/2000/svg" preserveAspectRatio="xMidYMid"><defs><linearGradient x1="0%" y1="100%" x2="100%" y2="0%" id="a"><stop stop-color="#4D27A8" offset="0%"/><stop stop-color="#A166FF" offset="100%"/></linearGradient></defs><path fill="url(#a)" d="M0 0h256v256H0z"/><path d="M149.47 85.906v6.426c-2.797 0-5.451 1.018-7.476 2.869a3.237 3.237 0 0 1-2.903.755 3.203 3.203 0 0 1-2.262-1.963c-3.921-10.08-14.087-16.853-25.298-16.853-7.733 0-15.103 3.191-20.22 8.756-4.393 4.765-6.81 10.863-6.81 17.174 0 1.404-.91 2.68-2.25 3.1-6.685 2.099-11.664 7.487-13.03 14.077-.006.051-.013.1-.022.144a19.163 19.163 0 0 0-.335 3.506c0 10.298 8.74 18.677 19.478 18.677h50.881V149H88.342c-14.284 0-25.906-11.261-25.906-25.103 0-1.488.135-2.969.415-4.52.01-.081.022-.155.038-.23 1.627-8.228 7.39-15.072 15.267-18.32.52-7.136 3.465-13.9 8.427-19.281 6.326-6.883 15.422-10.832 24.948-10.832 12.442 0 23.864 6.806 29.582 17.287a17.586 17.586 0 0 1 8.357-2.095m70.5 134.061c-5.348 5.347-14.055 5.344-19.403.003l-43.798-43.765a82.645 82.645 0 0 0 18.96-20.052l44.257 44.44c5.329 5.346 5.32 14.037-.016 19.374M32.028 110.733c0-41.635 33.883-75.507 75.53-75.507 41.648 0 75.53 33.872 75.53 75.507 0 41.635-33.882 75.507-75.53 75.507-41.647 0-75.53-33.872-75.53-75.507m192.516 85.326-45.367-45.552a81.4 81.4 0 0 0 10.34-39.774c0-45.176-36.766-81.933-81.959-81.933-45.192 0-81.958 36.757-81.958 81.933 0 45.179 36.766 81.933 81.958 81.933 16.116 0 31.141-4.691 43.83-12.756l44.634 44.607c3.928 3.923 9.086 5.883 14.245 5.883 5.158 0 10.32-1.963 14.248-5.89 7.836-7.836 7.848-20.598.029-28.451M107.558 166.96c-31.012 0-56.246-25.225-56.246-56.228s25.234-56.229 56.246-56.229c31.013 0 56.246 25.226 56.246 56.229s-25.233 56.228-56.246 56.228m0-118.883c-34.557 0-62.674 28.108-62.674 62.655s28.117 62.655 62.674 62.655c34.558 0 62.674-28.108 62.674-62.655s-28.116-62.655-62.674-62.655" fill="#FFF"/></svg>
